; generated by Slic3r 1.1.7 on 2015-04-30 at 19:45:31

; perimeters extrusion width = 0.40mm
; infill extrusion width = 0.53mm
; solid infill extrusion width = 0.53mm
; top infill extrusion width = 0.53mm

G21 ; set units to millimeters
M107
M190 S90 ; wait for bed temperature to be reached
M104 S240 ; set temperature
M106 S255 ; enable fan
G28 ; home all axes
G1 Z5 F5000 ; lift nozzle

M109 S240 ; wait for temperature to be reached
G90 ; use absolute coordinates
G92 E0
M82 ; use absolute distances for extrusion
G1 F1800.000 E-1.00000
G92 E0
G1 Z0.300 F7800.000
G1 X81.254 Y95.735 F7800.000
G1 E1.00000 F1800.000
G1 X82.919 Y94.343 E1.05131 F1080.000
G1 X91.449 Y89.343 E1.28508
G1 X93.588 Y88.549 E1.33903
G1 X94.765 Y88.443 E1.36697
G1 X105.265 Y88.443 E1.61522
G1 X107.512 Y88.840 E1.66916
G1 X108.590 Y89.348 E1.69734 F1080.000
G1 X117.090 Y94.348 E1.93050
G1 X118.825 Y95.830 E1.98444
G1 X119.948 Y97.816 E2.03838
G1 X120.322 Y100.067 E2.09233
G1 X119.902 Y102.309 E2.14627
G1 X118.739 Y104.272 E2.20022
G1 X117.090 Y105.652 E2.25106
G1 X108.590 Y110.652 E2.48422
G1 X106.452 Y111.449 E2.53816
G1 X105.265 Y111.557 E2.56634
G1 X94.765 Y111.557 E2.81459
G1 X92.518 Y111.160 E2.86854
G1 X91.449 Y110.657 E2.89647
G1 X82.919 Y105.657 E3.13024
G1 X81.182 Y104.178 E3.18419
G1 X80.056 Y102.194 E3.23813
G1 X79.678 Y99.944 E3.29208
G1 X80.094 Y97.700 E3.34602
G1 X81.224 Y95.787 E3.39855
G1 F1800.000 E2.39855
G92 E0
G1 X110.937 Y100.000 F7800.000
G1 E1.00000 F1800.000
G1 X104.726 Y103.586 E1.16956 F540.000
G1 X95.274 Y103.586 E1.39303
G1 X89.063 Y100.000 E1.56259
G1 X95.274 Y96.414 E1.73215
G1 X104.726 Y96.414 E1.95562
G1 X110.885 Y99.970 E2.12376
G1 X112.051 Y100.000 F7800.000
G1 X104.875 Y104.143 E2.31967 F540.000
G1 X95.125 Y104.143 E2.55019
G1 X87.949 Y100.000 E2.74610
G1 X95.125 Y95.857 E2.94200
G1 X104.875 Y95.857 E3.17252
G1 X111.999 Y99.970 E3.36701
G1 X113.165 Y100.000 F7800.000
G1 X105.024 Y104.700 E3.58926 F378.000
G1 X94.976 Y104.700 E3.82684
G1 X86.835 Y100.000 E4.04909
G1 X94.976 Y95.300 E4.27133
G1 X105.024 Y95.300 E4.50892
G1 X113.113 Y99.970 E4.72974
G1 X112.771 Y100.069 F7800.000
G1 X110.074 Y99.945 F7800.000
G1 X110.129 Y100.000 E4.73157 F1080.000
G1 X109.630 Y100.311 E4.74548
G1 X108.157 Y98.838 E4.79472
G1 X109.116 Y100.608 F7800.000
G1 X106.240 Y97.732 E4.89090 F1080.000
G1 X104.496 Y96.798 F7800.000
G1 X108.602 Y100.904 E5.02820 F1080.000
G1 X108.089 Y101.201 E5.04222
G1 X103.686 Y96.798 E5.18945
G1 X102.875 Y96.798 E5.20860
G1 X107.575 Y101.498 E5.36574
G1 X107.061 Y101.794 E5.37977
G1 X102.065 Y96.798 E5.54682
G1 X101.255 Y96.798 E5.56598
G1 X106.548 Y102.091 E5.74295
G1 X106.034 Y102.387 E5.75698
G1 X100.444 Y96.798 E5.94387
G1 X99.634 Y96.798 E5.96303
G1 X105.520 Y102.684 E6.15983
G1 X105.006 Y102.981 E6.17386
G1 X98.824 Y96.798 E6.38058
G1 X98.014 Y96.798 E6.39974
G1 X104.417 Y103.202 E6.61387
G1 X103.607 Y103.202 E6.63303
G1 X97.203 Y96.798 E6.84715
G1 X96.393 Y96.798 E6.86631
G1 X102.797 Y103.202 E7.08044
G1 X101.987 Y103.202 E7.09960
G1 X95.583 Y96.798 E7.31372
G1 X94.994 Y97.019 E7.32860
G1 X101.176 Y103.202 E7.53532
G1 X100.366 Y103.202 E7.55448
G1 X94.480 Y97.316 E7.75129
G1 X93.966 Y97.613 E7.76531
G1 X99.556 Y103.202 E7.95220
G1 X98.745 Y103.202 E7.97136
G1 X93.452 Y97.909 E8.14833
G1 X92.939 Y98.206 E8.16236
G1 X97.935 Y103.202 E8.32941
G1 X97.125 Y103.202 E8.34857
G1 X92.425 Y98.502 E8.50571
G1 X91.911 Y98.799 E8.51974
G1 X96.314 Y103.202 E8.66696
G1 X95.504 Y103.202 E8.68612
G1 X91.398 Y99.096 E8.82342
G1 X90.884 Y99.392 E8.83744
G1 X93.760 Y102.268 E8.93362
G1 X91.843 Y101.162 F7800.000
G1 X90.370 Y99.689 E8.98286 F1080.000
G1 X89.926 Y100.055 E8.99647
G1 X89.871 Y100.000 E8.99830
M106 S255
G1 F1800.000 E7.99830
G92 E0
G1 Z0.550 F7800.000
G1 X111.765 Y100.000 F7800.000
G1 E1.00000 F1800.000
G1 X104.837 Y104.000 E1.11318 F628.619
G1 X95.163 Y104.000 E1.25003
G1 X88.235 Y100.000 E1.36321
G1 X95.163 Y96.000 E1.47638
G1 X104.837 Y96.000 E1.61324
G1 X111.713 Y99.970 E1.72557
G1 X112.565 Y100.000 F7800.000
G1 X104.944 Y104.400 E1.85006 F628.619
G1 X95.056 Y104.400 E1.98995
G1 X87.435 Y100.000 E2.11444
G1 X95.056 Y95.600 E2.23893
G1 X104.944 Y95.600 E2.37882
G1 X112.513 Y99.970 E2.50247
G1 X113.365 Y100.000 F7800.000
G1 X105.051 Y104.800 E2.63828 F600.000
G1 X94.949 Y104.800 E2.78120
G1 X86.635 Y100.000 E2.91701
G1 X94.949 Y95.200 E3.05282
G1 X105.051 Y95.200 E3.19574
G1 X113.313 Y99.970 E3.33070
G1 X112.971 Y100.069 F7800.000
G1 X111.139 Y100.000 F7800.000
G1 X111.084 Y100.055 E3.33208 F1257.238
G1 X110.698 Y99.722 E3.34114
G1 X109.384 Y101.036 E3.37417
G1 X110.242 Y99.459 F7800.000
G1 X107.684 Y102.018 E3.43850 F1257.238
G1 X105.983 Y103.000 F7800.000
G1 X109.787 Y99.196 E3.53413 F1257.238
G1 X109.331 Y98.933 E3.54348
G1 X104.557 Y103.707 E3.66350
G1 X103.839 Y103.707 E3.67627
G1 X108.876 Y98.670 E3.80291
G1 X108.420 Y98.407 E3.81226
G1 X103.120 Y103.707 E3.94550
G1 X102.401 Y103.707 E3.95828
G1 X107.964 Y98.144 E4.09814
G1 X107.509 Y97.881 E4.10749
G1 X101.683 Y103.707 E4.25396
G1 X100.964 Y103.707 E4.26674
G1 X107.053 Y97.618 E4.41982
G1 X106.598 Y97.355 E4.42917
G1 X100.246 Y103.707 E4.58887
G1 X99.527 Y103.707 E4.60165
G1 X106.142 Y97.092 E4.76796
G1 X105.686 Y96.829 E4.77731
G1 X98.808 Y103.707 E4.95024
G1 X98.090 Y103.707 E4.96301
G1 X105.231 Y96.566 E5.14255
G1 X104.775 Y96.303 E5.15190
G1 X97.371 Y103.707 E5.33805
G1 X96.652 Y103.707 E5.35083
G1 X104.066 Y96.293 E5.53722
G1 X103.348 Y96.293 E5.55000
G1 X95.934 Y103.707 E5.73640
G1 X95.225 Y103.697 E5.74900
G1 X102.629 Y96.293 E5.93515
G1 X101.910 Y96.293 E5.94793
G1 X94.769 Y103.434 E6.12746
G1 X94.314 Y103.171 E6.13682
G1 X101.192 Y96.293 E6.30974
G1 X100.473 Y96.293 E6.32252
G1 X93.858 Y102.908 E6.48883
G1 X93.402 Y102.645 E6.49818
G1 X99.754 Y96.293 E6.65788
G1 X99.036 Y96.293 E6.67065
G1 X92.947 Y102.382 E6.82374
G1 X92.491 Y102.119 E6.83309
G1 X98.317 Y96.293 E6.97956
G1 X97.599 Y96.293 E6.99234
G1 X92.036 Y101.856 E7.13220
G1 X91.580 Y101.593 E7.14155
G1 X96.880 Y96.293 E7.27480
G1 X96.161 Y96.293 E7.28757
G1 X91.124 Y101.330 E7.41420
G1 X90.669 Y101.067 E7.42356
G1 X95.443 Y96.293 E7.54357
G1 X94.017 Y97.000 F7800.000
G1 X90.213 Y100.804 E7.63920 F1257.238
G1 X89.758 Y100.541 E7.64855
G1 X92.316 Y97.982 E7.71288
G1 X90.616 Y98.964 F7800.000
G1 X89.302 Y100.278 E7.74592 F1257.238
G1 X88.916 Y99.945 E7.75498
G1 X88.861 Y100.000 E7.75635
G1 F1800.000 E6.75635
G92 E0
G1 Z0.800 F7800.000
G1 X111.765 Y100.000 F7800.000
G1 E1.00000 F1800.000
G1 X104.837 Y104.000 E1.11318 F628.631
G1 X95.163 Y104.000 E1.25003
G1 X88.235 Y100.000 E1.36321
G1 X95.163 Y96.000 E1.47638
G1 X104.837 Y96.000 E1.61324
G1 X111.713 Y99.970 E1.72557
G1 X112.565 Y100.000 F7800.000
G1 X104.944 Y104.400 E1.85006 F628.631
G1 X95.056 Y104.400 E1.98995
G1 X87.435 Y100.000 E2.11444
G1 X95.056 Y95.600 E2.23893
G1 X104.944 Y95.600 E2.37882
G1 X112.513 Y99.970 E2.50247
G1 X113.365 Y100.000 F7800.000
G1 X105.051 Y104.800 E2.63828 F600.000
G1 X94.949 Y104.800 E2.78120
G1 X86.635 Y100.000 E2.91701
G1 X94.949 Y95.200 E3.05282
G1 X105.051 Y95.200 E3.19574
G1 X113.313 Y99.970 E3.33070
G1 X112.971 Y100.069 F7800.000
G1 X111.084 Y99.945 F7800.000
G1 X111.139 Y100.000 E3.33208 F1257.261
G1 X110.698 Y100.278 E3.34134
G1 X109.384 Y98.964 E3.37438
G1 X110.242 Y100.541 F7800.000
G1 X107.684 Y97.982 E3.43871 F1257.261
G1 X105.983 Y97.000 F7800.000
G1 X109.787 Y100.804 E3.53433 F1257.261
G1 X109.331 Y101.067 E3.54368
G1 X104.557 Y96.293 E3.66370
G1 X103.839 Y96.293 E3.67648
G1 X108.876 Y101.330 E3.80311
G1 X108.420 Y101.593 E3.81246
G1 X103.120 Y96.293 E3.94571
G1 X102.401 Y96.293 E3.95848
G1 X107.964 Y101.856 E4.09834
G1 X107.509 Y102.119 E4.10769
G1 X101.683 Y96.293 E4.25417
G1 X100.964 Y96.293 E4.26694
G1 X107.053 Y102.382 E4.42003
G1 X106.598 Y102.645 E4.42938
G1 X100.246 Y96.293 E4.58908
G1 X99.527 Y96.293 E4.60185
G1 X106.142 Y102.908 E4.76816
G1 X105.686 Y103.171 E4.77752
G1 X98.808 Y96.293 E4.95044
G1 X98.090 Y96.293 E4.96322
G1 X105.231 Y103.434 E5.14276
G1 X104.775 Y103.697 E5.15211
G1 X97.371 Y96.293 E5.33826
G1 X96.652 Y96.293 E5.35103
G1 X104.066 Y103.707 E5.53743
G1 X103.348 Y103.707 E5.55021
G1 X95.934 Y96.293 E5.73660
G1 X95.225 Y96.303 E5.74921
G1 X102.629 Y103.707 E5.93536
G1 X101.910 Y103.707 E5.94813
G1 X94.769 Y96.566 E6.12767
G1 X94.314 Y96.829 E6.13702
G1 X101.192 Y103.707 E6.30995
G1 X100.473 Y103.707 E6.32272
G1 X93.858 Y97.092 E6.48903
G1 X93.402 Y97.355 E6.49839
G1 X99.754 Y103.707 E6.65808
G1 X99.036 Y103.707 E6.67086
G1 X92.947 Y97.618 E6.82394
G1 X92.491 Y97.881 E6.83330
G1 X98.317 Y103.707 E6.97977
G1 X97.599 Y103.707 E6.99254
G1 X92.036 Y98.144 E7.13240
G1 X91.580 Y98.407 E7.14176
G1 X96.880 Y103.707 E7.27500
G1 X96.161 Y103.707 E7.28778
G1 X91.125 Y98.670 E7.41441
G1 X90.669 Y98.933 E7.42376
G1 X95.443 Y103.707 E7.54378
G1 X94.017 Y103.000 F7800.000
G1 X90.213 Y99.196 E7.63940 F1257.261
G1 X89.758 Y99.459 E7.64876
G1 X92.316 Y102.018 E7.71309
G1 X90.616 Y101.036 F7800.000
G1 X89.302 Y99.722 E7.74612 F1257.261
G1 X88.916 Y100.055 E7.75518
G1 X88.861 Y100.000 E7.75656
G1 F1800.000 E6.75656
G92 E0
G1 Z1.050 F7800.000
G1 X111.765 Y100.000 F7800.000
G1 E1.00000 F1800.000
G1 X104.837 Y104.000 E1.11318 F600.000
G1 X95.163 Y104.000 E1.25003
G1 X88.235 Y100.000 E1.36321
G1 X95.163 Y96.000 E1.47638
G1 X104.837 Y96.000 E1.61324
G1 X111.713 Y99.970 E1.72557
G1 X112.565 Y100.000 F7800.000
G1 X104.944 Y104.400 E1.85006 F600.000
G1 X95.056 Y104.400 E1.98995
G1 X87.435 Y100.000 E2.11444
G1 X95.056 Y95.600 E2.23893
G1 X104.944 Y95.600 E2.37882
G1 X112.513 Y99.970 E2.50247
G1 X113.365 Y100.000 F7800.000
G1 X105.051 Y104.800 E2.63828 F600.000
G1 X94.949 Y104.800 E2.78120
G1 X86.635 Y100.000 E2.91701
G1 X94.949 Y95.200 E3.05282
G1 X105.051 Y95.200 E3.19574
G1 X113.313 Y99.970 E3.33070
G1 X112.971 Y100.069 F7800.000
G1 X106.062 Y102.931 F7800.000
G1 X105.051 Y99.160 E3.40012 F815.272
G1 X106.747 Y97.464 E3.44275
G1 X106.296 Y97.204 E3.45200
G1 X104.696 Y98.804 E3.49224
G1 X95.398 Y96.313 E3.66336
G1 X91.541 Y98.453 E3.74177
G1 X89.579 Y100.415 E3.79110
G1 X89.859 Y99.424 E3.80940
G1 X89.129 Y100.154 E3.82776
G1 F1800.000 E2.82776
G92 E0
G1 Z1.300 F7800.000
G1 X111.765 Y100.000 F7800.000
G1 E1.00000 F1800.000
G1 X104.837 Y104.000 E1.11318 F600.000
G1 X95.163 Y104.000 E1.25003
G1 X88.235 Y100.000 E1.36321
G1 X95.163 Y96.000 E1.47638
G1 X104.837 Y96.000 E1.61324
G1 X111.713 Y99.970 E1.72557
G1 X112.565 Y100.000 F7800.000
G1 X104.944 Y104.400 E1.85006 F600.000
G1 X95.056 Y104.400 E1.98995
G1 X87.435 Y100.000 E2.11444
G1 X95.056 Y95.600 E2.23893
G1 X104.944 Y95.600 E2.37882
G1 X112.513 Y99.970 E2.50247
G1 X113.365 Y100.000 F7800.000
G1 X105.051 Y104.800 E2.63828 F600.000
G1 X94.949 Y104.800 E2.78120
G1 X86.635 Y100.000 E2.91701
G1 X94.949 Y95.200 E3.05282
G1 X105.051 Y95.200 E3.19574
G1 X113.313 Y99.970 E3.33070
G1 X112.971 Y100.069 F7800.000
G1 X106.521 Y97.334 F7800.000
G1 X105.181 Y98.674 E3.36440 F815.366
G1 X106.287 Y102.801 E3.44035
G1 X105.836 Y103.061 E3.44961
G1 X104.696 Y98.804 E3.52795
G1 X95.398 Y96.313 E3.69908
G1 X90.700 Y98.938 E3.79475
G1 X89.354 Y100.284 E3.82860
G1 F1800.000 E2.82860
G92 E0
G1 Z1.550 F7800.000
G1 X111.765 Y100.000 F7800.000
G1 E1.00000 F1800.000
G1 X104.837 Y104.000 E1.11318 F600.000
G1 X95.163 Y104.000 E1.25003
G1 X88.235 Y100.000 E1.36321
G1 X95.163 Y96.000 E1.47638
G1 X104.837 Y96.000 E1.61324
G1 X111.713 Y99.970 E1.72557
G1 X112.565 Y100.000 F7800.000
G1 X104.944 Y104.400 E1.85006 F600.000
G1 X95.056 Y104.400 E1.98995
G1 X87.435 Y100.000 E2.11444
G1 X95.056 Y95.600 E2.23893
G1 X104.944 Y95.600 E2.37882
G1 X112.513 Y99.970 E2.50247
G1 X113.365 Y100.000 F7800.000
G1 X105.051 Y104.800 E2.63828 F600.000
G1 X94.949 Y104.800 E2.78120
G1 X86.635 Y100.000 E2.91701
G1 X94.949 Y95.200 E3.05282
G1 X105.051 Y95.200 E3.19574
G1 X113.313 Y99.970 E3.33070
G1 X112.971 Y100.069 F7800.000
G1 X90.700 Y98.938 F7800.000
G1 X89.354 Y100.284 E3.36455 F1196.319
G1 X93.933 Y97.049 F7800.000
M106 S255
G1 X93.858 Y97.123 E3.36642 F3600.000
G1 X93.858 Y97.776 E3.37802
G1 X95.341 Y96.293 E3.41529
G1 X95.993 Y96.293 E3.42689
G1 X93.858 Y98.428 E3.48056
G1 X93.858 Y99.080 E3.49215
G1 X96.645 Y96.293 E3.56222
G1 X97.297 Y96.293 E3.57381
G1 X93.858 Y99.732 E3.66028
G1 X93.858 Y100.384 E3.67187
G1 X97.949 Y96.293 E3.77473
G1 X98.602 Y96.293 E3.78632
G1 X93.858 Y101.037 E3.90558
G1 X93.858 Y101.689 E3.91718
G1 X99.254 Y96.293 E4.05283
G1 X99.906 Y96.293 E4.06442
G1 X93.858 Y102.341 E4.21647
G1 X93.916 Y102.935 E4.22708
G1 X100.558 Y96.293 E4.39407
G1 X101.210 Y96.293 E4.40566
G1 X94.325 Y103.178 E4.57875
G1 X94.739 Y103.417 E4.58724
G1 X101.862 Y96.293 E4.76634
G1 X102.515 Y96.293 E4.77793
G1 X95.152 Y103.655 E4.96303
G1 X95.753 Y103.707 E4.97375
G1 X103.167 Y96.293 E5.16014
G1 X103.819 Y96.293 E5.17174
G1 X96.405 Y103.707 E5.35813
G1 X97.057 Y103.707 E5.36973
G1 X104.471 Y96.293 E5.55612
G1 X104.990 Y96.427 E5.56564
G1 X97.709 Y103.707 E5.74868
G1 X98.362 Y103.707 E5.76027
G1 X105.403 Y96.665 E5.93731
G1 X105.817 Y96.904 E5.94579
G1 X99.014 Y103.707 E6.11683
G1 X99.666 Y103.707 E6.12842
G1 X106.230 Y97.143 E6.29345
G1 X106.634 Y97.391 E6.30188
G1 X100.318 Y103.707 E6.46066
G1 X100.970 Y103.707 E6.47226
G1 X106.672 Y98.005 E6.61561
G1 X106.672 Y98.657 E6.62720
G1 X101.622 Y103.707 E6.75415
G1 X102.275 Y103.707 E6.76574
G1 X106.672 Y99.310 E6.87630
G1 X106.672 Y99.962 E6.88789
G1 X102.927 Y103.707 E6.98205
G1 X103.579 Y103.707 E6.99364
G1 X106.672 Y100.614 E7.07140
G1 X106.672 Y101.266 E7.08300
G1 X104.231 Y103.707 E7.14436
G1 X105.054 Y103.536 E7.15930
G1 X106.672 Y101.918 E7.19998
G1 X106.597 Y102.645 E7.21296
G1 X106.672 Y102.571 E7.21484
M106 S255
G1 F1800.000 E6.21484
G92 E0
G1 Z1.800 F7800.000
G1 X111.765 Y100.000 F7800.000
G1 E1.00000 F1800.000
G1 X104.837 Y104.000 E1.11318 F600.000
G1 X95.163 Y104.000 E1.25003
G1 X88.235 Y100.000 E1.36321
G1 X95.163 Y96.000 E1.47638
G1 X104.837 Y96.000 E1.61324
G1 X111.713 Y99.970 E1.72557
G1 X112.565 Y100.000 F7800.000
G1 X104.944 Y104.400 E1.85006 F600.000
G1 X95.056 Y104.400 E1.98995
G1 X87.435 Y100.000 E2.11444
G1 X95.056 Y95.600 E2.23893
G1 X104.944 Y95.600 E2.37882
G1 X112.513 Y99.970 E2.50247
G1 X113.365 Y100.000 F7800.000
G1 X105.051 Y104.800 E2.63828 F600.000
G1 X94.949 Y104.800 E2.78120
G1 X86.635 Y100.000 E2.91701
G1 X94.949 Y95.200 E3.05282
G1 X105.051 Y95.200 E3.19574
G1 X113.313 Y99.970 E3.33070
G1 X112.971 Y100.069 F7800.000
G1 X91.541 Y98.453 F7800.000
G1 X89.579 Y100.415 E3.38002 F1157.996
G1 X89.859 Y99.424 E3.39832
G1 X89.129 Y100.154 E3.41669
G1 X93.858 Y102.877 F7800.000
G1 X93.933 Y102.951 E3.41857 F1157.996
G1 X95.419 Y103.707 F7800.000
G1 X93.858 Y102.146 E3.45781 F1157.996
G1 X93.858 Y101.416 E3.47079
G1 X96.149 Y103.707 E3.52840
G1 X96.880 Y103.707 E3.54138
G1 X93.858 Y100.685 E3.61735
G1 X93.858 Y99.955 E3.63034
G1 X97.610 Y103.707 E3.72467
G1 X98.341 Y103.707 E3.73766
G1 X93.858 Y99.224 E3.85036
G1 X93.858 Y98.494 E3.86334
G1 X99.071 Y103.707 E3.99441
G1 X99.802 Y103.707 E4.00739
G1 X93.858 Y97.763 E4.15682
G1 X93.903 Y97.078 E4.16903
G1 X100.532 Y103.707 E4.33568
G1 X101.262 Y103.707 E4.34867
G1 X94.358 Y96.803 E4.52224
G1 X94.822 Y96.536 E4.53175
G1 X101.993 Y103.707 E4.71205
G1 X102.723 Y103.707 E4.72503
G1 X95.309 Y96.293 E4.91143
G1 X96.040 Y96.293 E4.92441
G1 X103.454 Y103.707 E5.11081
G1 X104.184 Y103.707 E5.12379
G1 X96.770 Y96.293 E5.31019
G1 X97.501 Y96.293 E5.32318
G1 X104.857 Y103.650 E5.50813
G1 X105.320 Y103.382 E5.51764
G1 X98.231 Y96.293 E5.69587
G1 X98.962 Y96.293 E5.70886
G1 X105.784 Y103.115 E5.88037
G1 X106.247 Y102.848 E5.88988
G1 X99.692 Y96.293 E6.05467
G1 X100.422 Y96.293 E6.06766
G1 X106.672 Y102.543 E6.22478
G1 X106.672 Y101.812 E6.23776
G1 X101.153 Y96.293 E6.37652
G1 X101.883 Y96.293 E6.38950
G1 X106.672 Y101.082 E6.50990
G1 X106.672 Y100.351 E6.52288
G1 X102.614 Y96.293 E6.62491
G1 X103.344 Y96.293 E6.63790
G1 X106.672 Y99.621 E6.72156
G1 X106.672 Y98.890 E6.73454
G1 X104.075 Y96.293 E6.79984
G1 X104.869 Y96.357 E6.81401
G1 X106.672 Y98.160 E6.85934
G1 X106.672 Y97.429 E6.87232
G1 X106.597 Y97.355 E6.87420
G1 F1800.000 E5.87420
G92 E0
G1 Z2.050 F7800.000
