; generated by Slic3r 1.1.7 on 2015-04-29 at 19:30:35

; perimeters extrusion width = 0.40mm
; infill extrusion width = 0.53mm
; solid infill extrusion width = 0.53mm
; top infill extrusion width = 0.53mm

G21 ; set units to millimeters
M107
M190 S90 ; wait for bed temperature to be reached
M104 S240 ; set temperature
M106 S255 ; enable fan
G28 ; home all axes
G1 Z5 F5000 ; lift nozzle

M109 S240 ; wait for temperature to be reached
G90 ; use absolute coordinates
G92 E0
M82 ; use absolute distances for extrusion
G1 F1800.000 E-1.00000
G92 E0
G1 Z0.300 F7800.000
G1 X68.362 Y65.887 F7800.000
G1 E1.00000 F1800.000
G1 X69.381 Y64.969 E1.03241 F1080.000
G1 X76.146 Y60.054 E1.23012
G1 X77.333 Y59.369 E1.26253
G1 X84.972 Y55.968 E1.46024
G1 X86.276 Y55.544 E1.49265
G1 X94.456 Y53.805 E1.69036
G1 X95.819 Y53.662 E1.72277
G1 X104.181 Y53.662 E1.92048
G1 X105.544 Y53.805 E1.95289
G1 X113.724 Y55.544 E2.15061 F1080.000
G1 X115.028 Y55.968 E2.18302
G1 X122.667 Y59.369 E2.38073
G1 X123.854 Y60.054 E2.41314
G1 X130.619 Y64.969 E2.61085
G1 X131.638 Y65.887 E2.64326
G1 X137.234 Y72.101 E2.84097
G1 X138.039 Y73.210 E2.87338
G1 X142.220 Y80.452 E3.07109
G1 X142.778 Y81.704 E3.10350
G1 X145.285 Y89.419 E3.29528
G1 X145.362 Y89.657 E3.30121
G1 X145.647 Y90.998 E3.33362
G1 X146.521 Y99.315 E3.53133
G1 X146.521 Y100.685 E3.56374
G1 X145.647 Y109.002 E3.76145
G1 X145.362 Y110.343 E3.79386
G1 X142.778 Y118.296 E3.99157
G1 X142.220 Y119.548 E4.02398
G1 X142.095 Y119.765 E4.02992
G1 X138.039 Y126.790 E4.22169
G1 X137.234 Y127.899 E4.25410
G1 X131.638 Y134.113 E4.45182
G1 X130.619 Y135.031 E4.48423
G1 X123.854 Y139.946 E4.68194
G1 X122.667 Y140.631 E4.71435
G1 X115.028 Y144.032 E4.91206
G1 X113.724 Y144.456 E4.94447
G1 X113.479 Y144.508 E4.95040
G1 X105.544 Y146.195 E5.14218
G1 X104.181 Y146.338 E5.17459
G1 X95.819 Y146.338 E5.37230
G1 X94.456 Y146.195 E5.40471
G1 X86.276 Y144.456 E5.60242
G1 X84.972 Y144.032 E5.63483
G1 X77.333 Y140.631 E5.83254
G1 X76.146 Y139.946 E5.86495
G1 X69.381 Y135.031 E6.06266
G1 X68.362 Y134.113 E6.09507
G1 X62.766 Y127.899 E6.29279
G1 X61.961 Y126.790 E6.32520
G1 X57.780 Y119.548 E6.52291
G1 X57.222 Y118.296 E6.55532
G1 X54.638 Y110.343 E6.75303
G1 X54.353 Y109.002 E6.78544
G1 X53.479 Y100.685 E6.98315
G1 X53.479 Y99.315 E7.01556
G1 X54.353 Y90.998 E7.21327
G1 X54.638 Y89.657 E7.24568
G1 X57.222 Y81.704 E7.44339
G1 X57.780 Y80.452 E7.47580
G1 X61.961 Y73.210 E7.67351
G1 X62.766 Y72.101 E7.70592
G1 X68.322 Y65.931 E7.90222
G1 F1800.000 E6.90222
G92 E0
G1 X126.302 Y112.265 F7800.000
G1 E1.00000 F1800.000
G1 X126.629 Y115.374 E1.07392 F540.000
G1 X115.086 Y120.513 E1.37265
G1 X106.631 Y111.124 E1.67138
G1 X110.285 Y104.796 E1.84413
G1 X110.961 Y102.937 E1.89090
G1 X111.305 Y100.989 E1.93767
G1 X111.305 Y93.682 E2.11042
G1 X123.321 Y89.778 E2.40915
G1 X130.748 Y100.000 E2.70788
G1 X128.910 Y102.529 E2.78180
G1 X130.281 Y105.339 E2.85572
G1 X128.032 Y107.511 E2.92964
G1 X128.894 Y110.516 E3.00356
G1 X126.351 Y112.231 E3.07606
G1 X125.713 Y111.990 F7800.000
G1 X126.032 Y115.030 E3.14832 F540.000
G1 X115.229 Y119.840 E3.42791
G1 X107.316 Y111.052 E3.70750
G1 X110.791 Y105.032 E3.87184
G1 X111.501 Y103.082 E3.92091
G1 X111.862 Y101.038 E3.96998
G1 X111.862 Y94.087 E4.13432
G1 X123.109 Y90.433 E4.41391
G1 X130.059 Y100.000 E4.69350
G1 X128.263 Y102.473 E4.76577
G1 X129.603 Y105.220 E4.83803
G1 X127.404 Y107.343 E4.91029
G1 X128.247 Y110.281 E4.98256
G1 X125.762 Y111.957 E5.05340
G1 X125.124 Y111.715 F7800.000
G1 X125.436 Y114.685 E5.12401 F378.000
G1 X115.372 Y119.166 E5.38446
G1 X108.001 Y110.980 E5.64492
G1 X111.298 Y105.268 E5.80083
G1 X112.042 Y103.227 E5.85221
G1 X112.419 Y101.087 E5.90359
G1 X112.419 Y94.492 E6.05950
G1 X122.896 Y91.088 E6.31996
G1 X129.371 Y100.000 E6.58042
G1 X127.615 Y102.416 E6.65102
G1 X128.925 Y105.100 E6.72163
G1 X126.776 Y107.175 E6.79224
G1 X127.600 Y110.045 E6.86285
G1 X125.173 Y111.682 E6.93204
G1 X125.408 Y111.997 F7800.000
G1 F1800.000 E5.93204
G92 E0
G1 X112.265 Y73.698 F7800.000
G1 E1.00000 F1800.000
G1 X115.374 Y73.371 E1.07392 F540.000
G1 X120.513 Y84.914 E1.37265
G1 X111.124 Y93.369 E1.67138
G1 X104.796 Y89.715 E1.84413
G1 X102.937 Y89.039 E1.89090
G1 X100.989 Y88.695 E1.93767
G1 X93.682 Y88.695 E2.11042
G1 X89.778 Y76.679 E2.40915
G1 X100.000 Y69.252 E2.70788
G1 X102.529 Y71.090 E2.78180
G1 X105.339 Y69.719 E2.85572
G1 X107.511 Y71.968 E2.92964
G1 X110.516 Y71.106 E3.00356
G1 X112.231 Y73.649 E3.07606
G1 X111.990 Y74.287 F7800.000
G1 X115.030 Y73.968 E3.14832 F540.000
G1 X119.840 Y84.771 E3.42791
G1 X111.052 Y92.684 E3.70751
G1 X105.032 Y89.209 E3.87184
G1 X103.082 Y88.499 E3.92091
G1 X101.038 Y88.138 E3.96998
G1 X94.087 Y88.138 E4.13432
G1 X90.433 Y76.891 E4.41391
G1 X100.000 Y69.941 E4.69351
G1 X102.473 Y71.737 E4.76577
G1 X105.220 Y70.397 E4.83803
G1 X107.343 Y72.596 E4.91030
G1 X110.281 Y71.753 E4.98256
G1 X111.957 Y74.238 E5.05340
G1 X111.715 Y74.876 F7800.000
G1 X114.685 Y74.564 E5.12401 F378.000
G1 X119.166 Y84.628 E5.38447
G1 X110.980 Y91.999 E5.64492
G1 X105.268 Y88.702 E5.80084
G1 X103.227 Y87.958 E5.85221
G1 X101.087 Y87.581 E5.90359
G1 X94.492 Y87.581 E6.05951
G1 X91.088 Y77.104 E6.31996
G1 X100.000 Y70.629 E6.58042
G1 X102.416 Y72.385 E6.65102
G1 X105.100 Y71.075 E6.72163
G1 X107.175 Y73.224 E6.79224
G1 X110.045 Y72.400 E6.86285
G1 X111.682 Y74.827 E6.93204
G1 X111.997 Y74.592 F7800.000
G1 F1800.000 E5.93204
G92 E0
G1 X73.698 Y87.735 F7800.000
G1 E1.00000 F1800.000
G1 X73.371 Y84.626 E1.07392 F540.000
G1 X84.914 Y79.487 E1.37265
G1 X93.369 Y88.876 E1.67138
G1 X89.715 Y95.204 E1.84413
G1 X89.039 Y97.063 E1.89090
G1 X88.695 Y99.011 E1.93767
G1 X88.695 Y106.318 E2.11042
G1 X76.679 Y110.222 E2.40915
G1 X69.252 Y100.000 E2.70788
G1 X71.090 Y97.471 E2.78180
G1 X69.719 Y94.661 E2.85572
G1 X71.968 Y92.489 E2.92964
G1 X71.106 Y89.484 E3.00356
G1 X73.649 Y87.769 E3.07606
G1 X74.287 Y88.010 F7800.000
G1 X73.968 Y84.970 E3.14832 F540.000
G1 X84.771 Y80.160 E3.42791
G1 X92.684 Y88.948 E3.70750
G1 X89.209 Y94.968 E3.87184
G1 X88.499 Y96.918 E3.92091
G1 X88.138 Y98.962 E3.96998
G1 X88.138 Y105.913 E4.13432
G1 X76.891 Y109.567 E4.41391
G1 X69.941 Y100.000 E4.69351
G1 X71.737 Y97.527 E4.76577
G1 X70.397 Y94.780 E4.83803
G1 X72.596 Y92.657 E4.91029
G1 X71.753 Y89.719 E4.98256
G1 X74.238 Y88.043 E5.05340
G1 X74.876 Y88.285 F7800.000
G1 X74.564 Y85.315 E5.12401 F378.000
G1 X84.628 Y80.834 E5.38446
G1 X91.999 Y89.020 E5.64492
G1 X88.702 Y94.732 E5.80083
G1 X87.958 Y96.773 E5.85221
G1 X87.581 Y98.913 E5.90359
G1 X87.581 Y105.508 E6.05950
G1 X77.104 Y108.912 E6.31996
G1 X70.629 Y100.000 E6.58042
G1 X72.385 Y97.584 E6.65102
G1 X71.075 Y94.900 E6.72163
G1 X73.224 Y92.825 E6.79224
G1 X72.400 Y89.955 E6.86285
G1 X74.827 Y88.318 E6.93204
G1 X74.592 Y88.003 F7800.000
G1 F1800.000 E5.93204
G92 E0
G1 X96.134 Y97.768 F7800.000
G1 E1.00000 F1800.000
G1 X97.768 Y96.134 E1.05463 F540.000
G1 X100.000 Y95.536 E1.10927
G1 X101.853 Y96.032 E1.15462
G1 X102.232 Y96.134 E1.16390 F540.000
G1 X103.866 Y97.768 E1.21854
G1 X104.464 Y100.000 E1.27317
G1 X103.866 Y102.232 E1.32780
G1 X102.232 Y103.866 E1.38244
G1 X100.000 Y104.464 E1.43707
G1 X97.768 Y103.866 E1.49171
G1 X96.134 Y102.232 E1.54634
G1 X95.536 Y100.000 E1.60097
G1 X96.118 Y97.826 E1.65419
G1 X96.633 Y98.056 F7800.000
G1 X98.056 Y96.633 E1.70176 F540.000
G1 X99.765 Y96.176 E1.74358
G1 X100.000 Y96.113 E1.74934 F540.000
G1 X101.944 Y96.633 E1.79691
G1 X103.367 Y98.056 E1.84449
G1 X103.887 Y100.000 E1.89207
G1 X103.367 Y101.944 E1.93964
G1 X101.944 Y103.367 E1.98722
G1 X100.000 Y103.887 E2.03479
G1 X98.056 Y103.367 E2.08237
G1 X96.633 Y101.944 E2.12994
G1 X96.113 Y100.000 E2.17752
G1 X96.618 Y98.114 E2.22367
G1 X97.133 Y98.345 F7800.000
G1 X98.345 Y97.133 E2.26419 F378.000
G1 X100.000 Y96.689 E2.30471
G1 X101.564 Y97.109 E2.34300
G1 X101.655 Y97.133 E2.34522 F378.000
G1 X102.867 Y98.345 E2.38574
G1 X103.311 Y100.000 E2.42626
G1 X102.867 Y101.655 E2.46678
G1 X101.655 Y102.867 E2.50729
G1 X100.000 Y103.311 E2.54781
G1 X98.345 Y102.867 E2.58833
G1 X97.133 Y101.655 E2.62884
G1 X96.689 Y100.000 E2.66936
G1 X97.117 Y98.403 E2.70846
G1 F1800.000 E1.70846
G92 E0
G1 X101.611 Y97.027 F7800.000
G1 X87.735 Y126.302 F7800.000
G1 E1.00000 F1800.000
G1 X84.626 Y126.629 E1.07392 F540.000
G1 X79.487 Y115.086 E1.37265
G1 X88.876 Y106.631 E1.67138
G1 X95.204 Y110.285 E1.84413
G1 X97.063 Y110.961 E1.89090
G1 X99.011 Y111.305 E1.93767
G1 X106.318 Y111.305 E2.11042
G1 X110.222 Y123.321 E2.40915
G1 X100.000 Y130.748 E2.70788
G1 X97.471 Y128.910 E2.78180
G1 X94.661 Y130.281 E2.85572
G1 X92.489 Y128.032 E2.92964
G1 X89.484 Y128.894 E3.00356
G1 X87.769 Y126.351 E3.07606
G1 X88.010 Y125.713 F7800.000
G1 X84.970 Y126.032 E3.14832 F540.000
G1 X80.160 Y115.229 E3.42791
G1 X88.948 Y107.316 E3.70751
G1 X94.968 Y110.791 E3.87184
G1 X96.918 Y111.501 E3.92091
G1 X98.962 Y111.862 E3.96998
G1 X105.913 Y111.862 E4.13432
G1 X109.567 Y123.109 E4.41391
G1 X100.000 Y130.059 E4.69351
G1 X97.527 Y128.263 E4.76577
G1 X94.780 Y129.603 E4.83803
G1 X92.657 Y127.404 E4.91029
G1 X89.719 Y128.247 E4.98256
G1 X88.043 Y125.762 E5.05340
G1 X88.285 Y125.124 F7800.000
G1 X85.315 Y125.436 E5.12401 F378.000
G1 X80.834 Y115.372 E5.38446
G1 X89.020 Y108.001 E5.64492
G1 X94.732 Y111.298 E5.80083
G1 X96.773 Y112.042 E5.85221
G1 X98.913 Y112.419 E5.90359
G1 X105.508 Y112.419 E6.05950
G1 X108.912 Y122.896 E6.31996
G1 X100.000 Y129.371 E6.58042
G1 X97.584 Y127.615 E6.65102
G1 X94.900 Y128.925 E6.72163
G1 X92.825 Y126.776 E6.79224
G1 X89.955 Y127.600 E6.86285
G1 X88.318 Y125.173 E6.93204
G1 X88.003 Y125.408 F7800.000
G1 X83.953 Y134.853 F7800.000
G1 X80.711 Y133.410 E7.01594 F540.000
G1 X74.295 Y128.748 E7.20345
G1 X74.275 Y128.768 E7.20411
G1 X68.790 Y122.676 E7.39793
G1 X64.757 Y115.691 E7.58861
G1 X62.265 Y108.021 E7.77929
G1 X61.422 Y100.000 E7.96997
G1 X62.265 Y91.979 E8.16066
G1 X64.757 Y84.309 E8.35134
G1 X68.790 Y77.324 E8.54202
G1 X74.186 Y71.331 E8.73271
G1 X80.711 Y66.590 E8.92339
G1 X88.079 Y63.310 E9.11407
G1 X95.968 Y61.633 E9.30475
G1 X104.033 Y61.633 E9.49544
G1 X111.821 Y63.289 E9.68370
G1 X111.921 Y63.310 E9.68612 F540.000
G1 X119.289 Y66.590 E9.87680
G1 X125.814 Y71.331 E10.06748
G1 X131.210 Y77.324 E10.25817
G1 X135.243 Y84.309 E10.44885
G1 X137.735 Y91.979 E10.63953
G1 X138.578 Y100.000 E10.83021
G1 X137.735 Y108.021 E11.02090
G1 X135.243 Y115.691 E11.21158
G1 X131.210 Y122.676 E11.40226
G1 X125.814 Y128.669 E11.59295
G1 X119.289 Y133.410 E11.78363
G1 X111.921 Y136.690 E11.97431
G1 X104.033 Y138.367 E12.16499
G1 X95.967 Y138.367 E12.35568
G1 X88.079 Y136.690 E12.54636
G1 X84.008 Y134.877 E12.65172
G1 X83.726 Y135.362 F7800.000
G1 X80.431 Y133.895 E12.73701 F540.000
G1 X73.811 Y129.085 E12.93046
G1 X68.337 Y123.005 E13.12391
G1 X64.245 Y115.919 E13.31736
G1 X61.717 Y108.137 E13.51081
G1 X60.862 Y100.000 E13.70426
G1 X61.717 Y91.863 E13.89771
G1 X64.245 Y84.081 E14.09117
G1 X68.337 Y76.995 E14.28462
G1 X73.811 Y70.915 E14.47807
G1 X80.431 Y66.105 E14.67152
G1 X87.906 Y62.777 E14.86497
G1 X95.909 Y61.076 E15.05842
G1 X104.091 Y61.076 E15.25187 F540.000
G1 X112.094 Y62.777 E15.44532
G1 X119.569 Y66.105 E15.63878
G1 X126.189 Y70.915 E15.83223
G1 X131.663 Y76.995 E16.02568
G1 X135.755 Y84.081 E16.21913
G1 X138.283 Y91.863 E16.41258
G1 X139.138 Y100.000 E16.60603
G1 X138.283 Y108.137 E16.79948
G1 X135.755 Y115.919 E16.99294
G1 X131.663 Y123.005 E17.18639
G1 X126.189 Y129.085 E17.37984
G1 X119.569 Y133.895 E17.57329
G1 X112.094 Y137.223 E17.76674
G1 X104.091 Y138.924 E17.96019
G1 X95.909 Y138.924 E18.15364
G1 X87.906 Y137.223 E18.34709
G1 X83.781 Y135.386 E18.45384
G1 X83.500 Y135.871 F7800.000
G1 X80.151 Y134.380 E18.54051 F378.000
G1 X73.437 Y129.502 E18.73673
G1 X67.883 Y123.334 E18.93295
G1 X63.734 Y116.147 E19.12917
G1 X61.169 Y108.254 E19.32539
G1 X60.302 Y100.000 E19.52161
G1 X61.169 Y91.746 E19.71783
G1 X63.734 Y83.853 E19.91405
G1 X67.883 Y76.666 E20.11027
G1 X73.437 Y70.498 E20.30649
G1 X80.151 Y65.620 E20.50271
G1 X87.733 Y62.245 E20.69893
G1 X95.850 Y60.519 E20.89515
G1 X104.150 Y60.519 E21.09137
G1 X112.053 Y62.199 E21.28240
G1 X112.267 Y62.245 E21.28759 F378.000
G1 X119.849 Y65.620 E21.48381
G1 X126.563 Y70.498 E21.68003
G1 X132.117 Y76.666 E21.87625
G1 X136.266 Y83.853 E22.07247
G1 X138.858 Y91.829 E22.27076
G1 X138.840 Y91.829 E22.27119
G1 X139.698 Y100.000 E22.46543
G1 X138.831 Y108.254 E22.66165
G1 X136.266 Y116.147 E22.85787
G1 X132.117 Y123.334 E23.05409
G1 X126.563 Y129.502 E23.25031
G1 X119.849 Y134.380 E23.44653
G1 X112.267 Y137.755 E23.64275
G1 X104.150 Y139.481 E23.83897
G1 X95.850 Y139.481 E24.03519
G1 X87.733 Y137.755 E24.23141
G1 X83.554 Y135.895 E24.33955
G1 F1800.000 E23.33955
G92 E0
G1 X112.211 Y62.351 F7800.000
G1 X112.226 Y63.866 F7800.000
G1 E1.00000 F1800.000
G1 X135.884 Y87.524 E1.79105 F1080.000
G1 X136.265 Y88.698 E1.82025
G1 X111.094 Y63.527 E2.66190
G1 X110.087 Y63.313 E2.68624
G1 X136.647 Y89.873 E3.57432
G1 X137.029 Y91.047 E3.60351
G1 X109.080 Y63.099 E4.53801
G1 X108.073 Y62.885 E4.56235
G1 X137.370 Y92.182 E5.54194
G1 X137.463 Y93.068 E5.56300
G1 X107.066 Y62.671 E6.57937
G1 X106.060 Y62.457 E6.60371
G1 X137.557 Y93.953 E7.65685
G1 X137.650 Y94.839 E7.67791
G1 X105.053 Y62.243 E8.76783
G1 X104.046 Y62.029 E8.79217
G1 X115.038 Y73.021 E9.15971
G1 X114.321 Y73.096 E9.17677
G1 X103.242 Y62.017 E9.54721
G1 X102.449 Y62.017 E9.56595
G1 X113.604 Y73.172 E9.93892
G1 X112.886 Y73.247 E9.95598
G1 X111.464 Y71.825 E10.00352
G1 X110.384 Y70.745 F7800.000
G1 X101.656 Y62.017 E10.29535 F1080.000
G1 X100.864 Y62.017 E10.31409
G1 X109.768 Y70.922 E10.61183
G1 X109.152 Y71.098 E10.62698
G1 X100.071 Y62.017 E10.93062
G1 X99.278 Y62.017 E10.94937
G1 X108.536 Y71.275 E11.25892
G1 X107.920 Y71.452 E11.27407
G1 X98.485 Y62.017 E11.58953
G1 X97.692 Y62.017 E11.60827
G1 X105.089 Y69.414 E11.85560
G1 X104.556 Y69.674 E11.86962
G1 X96.900 Y62.017 E12.12563
G1 X96.107 Y62.017 E12.14438
G1 X104.024 Y69.934 E12.40908
G1 X103.491 Y70.194 E12.42310
G1 X95.436 Y62.139 E12.69243
G1 X94.782 Y62.278 E12.70823
G1 X102.958 Y70.454 E12.98161
G1 X101.788 Y70.076 E13.01067
G1 X94.128 Y62.417 E13.26679
G1 X93.474 Y62.556 E13.28259
G1 X99.824 Y68.905 E13.49491
G1 X99.365 Y69.239 E13.50833
G1 X92.820 Y62.695 E13.72715
G1 X92.167 Y62.834 E13.74295
G1 X98.906 Y69.573 E13.96828
G1 X98.446 Y69.906 E13.98170
G1 X91.513 Y62.973 E14.21354
G1 X90.859 Y63.112 E14.22934
G1 X97.987 Y70.240 E14.46769
G1 X97.528 Y70.573 E14.48111
G1 X90.205 Y63.251 E14.72596
G1 X89.551 Y63.389 E14.74176
G1 X97.069 Y70.907 E14.99313
G1 X96.610 Y71.241 E15.00654
G1 X88.898 Y63.528 E15.26441
G1 X88.244 Y63.667 E15.28022
G1 X96.151 Y71.574 E15.54460
G1 X95.691 Y71.908 E15.55802
G1 X87.688 Y63.904 E15.82563
G1 X87.139 Y64.149 E15.83982
G1 X95.232 Y72.241 E16.11043
G1 X94.773 Y72.575 E16.12384
G1 X86.591 Y64.393 E16.39743
G1 X86.042 Y64.637 E16.41163
G1 X94.314 Y72.909 E16.68821
G1 X93.855 Y73.242 E16.70163
G1 X85.494 Y64.881 E16.98119
G1 X84.945 Y65.125 E16.99539
G1 X93.396 Y73.576 E17.27794
G1 X92.936 Y73.910 E17.29136
G1 X84.397 Y65.370 E17.57691
G1 X83.848 Y65.614 E17.59110
G1 X92.477 Y74.243 E17.87963
G1 X92.018 Y74.577 E17.89305
G1 X83.299 Y65.858 E18.18457
G1 X82.751 Y66.102 E18.19877
G1 X91.559 Y74.910 E18.49328
G1 X91.100 Y75.244 E18.50670
G1 X82.202 Y66.347 E18.80419
G1 X81.654 Y66.591 E18.81839
G1 X90.640 Y75.578 E19.11887
G1 X90.181 Y75.911 E19.13229
G1 X81.105 Y66.835 E19.43576
G1 X80.613 Y67.136 E19.44940
G1 X89.722 Y76.245 E19.75397
G1 X89.380 Y76.695 E19.76734
G1 X80.154 Y67.470 E20.07582
G1 X79.695 Y67.803 E20.08924
G1 X89.761 Y77.870 E20.42583
G1 X90.143 Y79.044 E20.45502
G1 X79.236 Y68.137 E20.81972
G1 X78.777 Y68.470 E20.83314
G1 X90.525 Y80.218 E21.22595
G1 X90.906 Y81.393 E21.25515
G1 X78.317 Y68.804 E21.67607
G1 X77.858 Y69.138 E21.68949
G1 X91.288 Y82.567 E22.13853
G1 X91.669 Y83.741 E22.16772
G1 X77.399 Y69.471 E22.64487
G1 X76.940 Y69.805 E22.65829
G1 X92.051 Y84.916 E23.16354
G1 X92.432 Y86.090 E23.19274
G1 X76.481 Y70.138 E23.72611
G1 X76.022 Y70.472 E23.73953
G1 X84.708 Y79.158 E24.02997
G1 X84.159 Y79.403 E24.04417
G1 X75.562 Y70.806 E24.33163
G1 X75.103 Y71.139 E24.34505
